X: 28015
T: Moving Cloud, The
R: reel
M: 4/4
K: Gmajor
|:"G "DG BG "Cm "^DG cG|"G "DG BG AG FG|"Am "cA ~A2 (3Bcd gb|" D"ag ed BA GE|
"G "D3^D "Em "E3D|"G "DG BG AG FG|"Am "cB Ac BA GB|" D"AD EF "G "G2 G2:|
|:"G "~d2 bd ad gd|"G "~d2 bd ad gd|"Am "~e2 c'e be ae|"Am "~e2 c'e be ae|
"G "~d2 bd ad gd|"G "~d2 bd "A7 "ad gd|"C "cB Ac BA GB|" D"AD EF "G "G2 G2:|
|:"G "Bd ~d2 ed ~d2|"G "Bd ~d2 ed cB|"Am "ce ~e2 fe ~e2|"Am "ce ~e2 ed ^cd|
"G "Bd `d2 ed `d2|"G "Bd `d2 "Am "ed cB|"C "cB Ac BA GB|" D"AD EF "G "G2 G2:|

